!!!OTL: Die dienende Schwester.
!!!OTL-incipit: Es war ein Markgraf an dem Rhein,
!!!ARE: Europa, Mitteleuropa, Deutschland (BRD), Niedersachsen, Hannover
!!!YOR: 4, S. 116
!!    1912 gedruckt in Hannover
!!!SCT: Q0075q
!!!TXL: @@DE
!!!YEM: Copyright 1995, estate of Helmut Schaffrath.
**kern	**text
*ICvox	*
*M4/4	*
*met(c)	*
*k[b-]	*
*F:	*
!LO:TX:a:t=Langsam	!
!LO:TX:a:t=373 Hannover	!
{8fL	Es
8aJ	.
=1	=1
4cc	war
4cc	ein
4cc	Markgraf
4dd	.
=2	=2
4b-	an
4g	dem
4g}	Rhein,
{8gL	der
8aJ	.
=3	=3
4b-	hatt'
4b-	drei
4b-	ſchö-
4cc	-ne
=4	=4
4a	Töchter-
4f	.
4f	-lein,
4r}	.
=5	=5
{2cc	Töchter-
2dd	.
=6	=6
2ee	-lein,
4r	.
4cc	der
=7	=7
4ff	hatt'
4cc	drei
4dd	ſchö-
4b-	-ne
=8	=8
2a	Töchter-
2g	.
=9	=9
2f	-lein.
4r}	.
==	==
!!!AGN: Ballade, Adelige als Dienstmagd, Tod; Kinder - Spiel, Tanz
!! Einschiebsel am Anfang der dritten Zeile.
!!!ONB: ESAC (Essen Associative Code) Database: BALLADE
!!!AMT: simple quadruple
!!!AIN: vox
!!!EED: Helmut Schaffrath
!!!EEV: 1.0
!!!source: Deutsche Volkslieder mit ihren Melodien. Herausgegeben vom Deutschen Volksliedarchiv. Vierter Band. Berlin 1959.
!!!page: 116
!!!ENC: Anna Maria Matuszewska
!!!EEV: 2025/02/27
*-	*-
